public/static/img/crypto/AVAX.svg

<svg width="48" height="48" viewBox="0 0 48 48" fill="none" xmlns="http://www.w3.org/2000/svg">
<g clip-path="url(#clip0_1168_4724)">
<path d="M3.00088e-08 23.9964C-0.000141435 28.7424 1.40707 33.3818 4.04368 37.3281C6.6803 41.2743 10.4279 44.3501 14.8126 46.1664C20.6923 48.6015 27.2986 48.6015 33.1783 46.1664C36.0897 44.9605 38.7351 43.193 40.9633 40.9647C43.1915 38.7364 44.959 36.091 46.1647 33.1795C47.9805 28.7947 48.4555 23.9699 47.5297 19.3152C46.6038 14.6604 44.3187 10.3847 40.9632 7.0284C38.735 4.80002 36.0897 3.03239 33.1783 1.82645C30.2669 0.620503 27.1465 -0.000126036 23.9952 1.91984e-08C20.844 1.52578e-08 17.7237 0.620694 14.8124 1.82664C11.901 3.03259 9.25578 4.80017 7.02761 7.02846C4.79943 9.25674 3.03198 11.9021 1.82618 14.8135C0.62038 17.7248 -0.000157561 20.8452 3.00088e-08 23.9964Z" fill="#E84142"/>
<path d="M13.487 35.5202C12.5013 35.5202 11.5392 35.5437 10.5535 35.5202C8.723 35.4966 8.1362 34.5597 9.05156 32.9435C11.4686 28.6334 13.9329 24.3465 16.397 20.0363C18.4154 16.5227 20.41 12.9856 22.4282 9.47201C23.4609 7.69169 24.5404 7.71521 25.5732 9.49529C26.5571 11.1817 27.5271 12.8762 28.4832 14.5785C29.4688 16.3588 29.4924 18.1624 28.4596 19.9192C25.9781 24.2452 23.4826 28.5632 20.9733 32.8732C19.9641 34.5832 18.4389 35.4734 16.444 35.4966C15.4348 35.5202 14.4727 35.5202 13.487 35.5202Z" fill="#FEFDFD"/>
<path d="M32.2619 35.5201C30.7365 35.5201 29.2111 35.5436 27.6856 35.5201C26.0663 35.4733 25.4798 34.5363 26.2775 33.1074C27.803 30.3901 29.3755 27.6963 30.9712 25.0023C31.7692 23.6672 32.8955 23.6672 33.6935 25.0023C35.2895 27.6963 36.8383 30.3901 38.3404 33.1309C39.0914 34.466 38.5046 35.4498 36.9556 35.4966C35.3834 35.5436 33.8344 35.5201 32.2619 35.5201Z" fill="#FEFCFC"/>
</g>
<defs>
<clipPath id="clip0_1168_4724">
<rect width="48" height="48" fill="white"/>
</clipPath>
</defs>
</svg>

<svg width="48" height="48" fill="none" xmlns="http://www.w3.org/2000/svg"><g clip-path="url(#a)"><path d="M0 23.996a23.996 23.996 0 1 0 47.993.002A23.996 23.996 0 0 0 0 23.996Z" fill="#E84142"/><path d="M13.487 35.52c-.986 0-1.948.024-2.934 0-1.83-.023-2.417-.96-1.501-2.577 2.417-4.31 4.88-8.596 7.345-12.907 2.018-3.513 4.013-7.05 6.031-10.564 1.033-1.78 2.112-1.757 3.145.023a357.14 357.14 0 0 1 2.91 5.084c.986 1.78 1.01 3.583-.023 5.34a2326.298 2326.298 0 0 1-7.487 12.954c-1.009 1.71-2.534 2.6-4.529 2.624-1.01.023-1.971.023-2.957.023Z" fill="#FEFDFD"/><path d="M32.262 35.52c-1.526 0-3.05.024-4.576 0-1.62-.047-2.206-.984-1.409-2.413a403.755 403.755 0 0 1 4.694-8.105c.798-1.335 1.924-1.335 2.723 0a279.004 279.004 0 0 1 4.646 8.129c.751 1.335.165 2.319-1.384 2.366-1.573.047-3.122.023-4.694.023Z" fill="#FEFCFC"/></g><defs><clipPath id="a"><path fill="#fff" d="M0 0h48v48H0z"/></clipPath></defs></svg>
